Surfn-Orange/16x16/places/user-trash.svg

<?xml version="1.0" encoding="UTF-8" standalone="no"?>
<!-- Created with Inkscape (http://www.inkscape.org/) -->

<svg
   xmlns:osb="http://www.openswatchbook.org/uri/2009/osb"
   xmlns:dc="http://purl.org/dc/elements/1.1/"
   xmlns:cc="http://creativecommons.org/ns#"
   xmlns:rdf="http://www.w3.org/1999/02/22-rdf-syntax-ns#"
   xmlns:svg="http://www.w3.org/2000/svg"
   xmlns="http://www.w3.org/2000/svg"
   xmlns:sodipodi="http://sodipodi.sourceforge.net/DTD/sodipodi-0.dtd"
   xmlns:inkscape="http://www.inkscape.org/namespaces/inkscape"
   sodipodi:docname="user-trash-symbolic.svg"
   inkscape:export-filename="/home/sam/source-symbolic.png"
   inkscape:export-xdpi="270"
   inkscape:export-ydpi="270"
   height="16"
   id="svg7384"
   style="enable-background:new"
   version="1.1"
   inkscape:version="0.48.4 r9939"
   width="16">
  <sodipodi:namedview
     inkscape:bbox-nodes="true"
     inkscape:bbox-paths="true"
     bordercolor="#666666"
     borderlayer="false"
     borderopacity="1"
     inkscape:current-layer="layer1"
     inkscape:cx="6.2504471"
     inkscape:cy="2.9324291"
     gridtolerance="10"
     inkscape:guide-bbox="true"
     guidetolerance="10"
     id="namedview88"
     inkscape:object-nodes="true"
     inkscape:object-paths="true"
     objecttolerance="10"
     pagecolor="#f7f7f7"
     inkscape:pageopacity="1"
     inkscape:pageshadow="2"
     showborder="false"
     showgrid="false"
     showguides="true"
     inkscape:showpageshadow="false"
     inkscape:snap-bbox="true"
     inkscape:snap-bbox-edge-midpoints="false"
     inkscape:snap-bbox-midpoints="false"
     inkscape:snap-center="false"
     inkscape:snap-global="true"
     inkscape:snap-grids="true"
     inkscape:snap-intersection-paths="true"
     inkscape:snap-midpoints="true"
     inkscape:snap-nodes="true"
     inkscape:snap-object-midpoints="true"
     inkscape:snap-others="true"
     inkscape:snap-page="false"
     inkscape:snap-smooth-nodes="true"
     inkscape:snap-to-guides="true"
     inkscape:window-height="701"
     inkscape:window-maximized="0"
     inkscape:window-width="1360"
     inkscape:window-x="0"
     inkscape:window-y="28"
     inkscape:zoom="22.627417" />
  <metadata
     id="metadata90">
    <rdf:RDF>
      <cc:Work
         rdf:about="">
        <dc:format>image/svg+xml</dc:format>
        <dc:type
           rdf:resource="http://purl.org/dc/dcmitype/StillImage" />
        <dc:title>Paper Symbolic Icon Theme</dc:title>
      </cc:Work>
    </rdf:RDF>
  </metadata>
  <title
     id="title8473">Paper Symbolic Icon Theme</title>
  <defs
     id="defs7386">
    <linearGradient
       id="linearGradient5606"
       osb:paint="solid">
      <stop
         id="stop5608"
         offset="0"
         style="stop-color:#000000;stop-opacity:1;" />
    </linearGradient>
    <filter
       inkscape:collect="always"
       color-interpolation-filters="sRGB"
       id="filter7554">
      <feBlend
         inkscape:collect="always"
         id="feBlend7556"
         in2="BackgroundImage"
         mode="darken" />
    </filter>
  </defs>
  <g
     inkscape:groupmode="layer"
     id="layer9"
     inkscape:label="status"
     style="display:inline"
     transform="translate(-668.00043,391.99636)" />
  <g
     inkscape:groupmode="layer"
     id="layer10"
     inkscape:label="devices"
     style="display:inline;filter:url(#filter7554)"
     transform="translate(-668.00043,391.99636)" />
  <g
     inkscape:groupmode="layer"
     id="layer1"
     inkscape:label="places"
     style="display:inline"
     transform="translate(-427.00023,-225.00364)">
    <path
       style="font-size:medium;font-style:normal;font-variant:normal;font-weight:normal;font-stretch:normal;text-indent:0;text-align:start;text-decoration:none;line-height:normal;letter-spacing:normal;word-spacing:normal;text-transform:none;direction:ltr;block-progression:tb;writing-mode:lr-tb;text-anchor:start;baseline-shift:baseline;color:#000000;fill:#d55555;fill-opacity:1;stroke:none;stroke-width:2;marker:none;visibility:visible;display:inline;overflow:visible;enable-background:accumulate;font-family:Sans;-inkscape-font-specification:Sans"
       d="M 2 5 L 2 14 C 2.00005 14.52358 2.47642 14.99995 3 15 L 11 15 L 12 15 C 12.52358 14.99995 12.99995 14.52358 13 14 L 13 5 L 2 5 z M 3.9375 5.46875 A 1.0001 1.0001 0 0 1 4.03125 5.46875 A 1.0001 1.0001 0 0 1 5.15625 6.5 L 5.15625 13.125 A 1.0001 1.0001 0 1 1 3.15625 13.125 L 3.15625 6.5 A 1.0001 1.0001 0 0 1 3.9375 5.46875 z M 7.46875 5.46875 A 1.0001 1.0001 0 0 1 7.5625 5.46875 A 1.0001 1.0001 0 0 1 8.6875 6.5 L 8.6875 13.125 A 1.0001 1.0001 0 1 1 6.6875 13.125 L 6.6875 6.5 A 1.0001 1.0001 0 0 1 7.46875 5.46875 z M 10.84375 5.46875 A 1.0001 1.0001 0 0 1 10.9375 5.46875 A 1.0001 1.0001 0 0 1 12.0625 6.5 L 12.0625 13.125 A 1.0001 1.0001 0 1 1 10.0625 13.125 L 10.0625 6.5 A 1.0001 1.0001 0 0 1 10.84375 5.46875 z "
       transform="translate(427.00023,225.00364)"
       id="path8476" />
    <path
       inkscape:connector-curvature="0"
       d="m 428,228 0,1 13.0002,-0.003 L 441,228 c 0,-1 -0.9998,-1.00336 -0.9998,-1.00336 l -3,0 c 0,0 0,-1 -1,-1 l -3,0 c -1,0 -1,1 -1,1 l -3,0 c 0,0 -1.0002,0.003 -1.0002,1.00336 z"
       id="path8478"
       sodipodi:nodetypes="ccccccccccc"
       style="font-size:medium;font-style:normal;font-variant:normal;font-weight:normal;font-stretch:normal;text-indent:0;text-align:start;text-decoration:none;line-height:normal;letter-spacing:normal;word-spacing:normal;text-transform:none;direction:ltr;block-progression:tb;writing-mode:lr-tb;text-anchor:start;baseline-shift:baseline;color:#000000;fill:#d55555;fill-opacity:1;stroke:none;stroke-width:2;marker:none;visibility:visible;display:inline;overflow:visible;enable-background:accumulate;font-family:Sans;-inkscape-font-specification:Sans" />
  </g>
  <g
     inkscape:groupmode="layer"
     id="layer14"
     inkscape:label="mimetypes"
     style="display:inline"
     transform="translate(-668.00043,391.99636)" />
  <g
     inkscape:groupmode="layer"
     id="layer15"
     inkscape:label="emblems"
     style="display:inline"
     transform="translate(-668.00043,391.99636)" />
  <g
     inkscape:groupmode="layer"
     id="g71291"
     inkscape:label="emotes"
     style="display:inline"
     transform="translate(-668.00043,391.99636)" />
  <g
     inkscape:groupmode="layer"
     id="layer2"
     inkscape:label="categories"
     style="display:inline"
     transform="translate(-427.00023,-75.003645)" />
  <g
     inkscape:groupmode="layer"
     id="g6058"
     inkscape:label="apps"
     style="display:inline"
     transform="translate(-427.00023,-75.003645)" />
  <g
     inkscape:groupmode="layer"
     id="layer12"
     inkscape:label="actions"
     style="display:inline"
     transform="translate(-668.00043,391.99636)" />
</svg>

<svg xmlns="http://www.w3.org/2000/svg" height="16" width="16" enable-background="new"><defs><filter color-interpolation-filters="sRGB" id="a"><feBlend in2="BackgroundImage" mode="darken"/></filter></defs><g color="#000" fill="#969494" font-family="Sans"><path style="text-indent:0;text-align:start;line-height:normal;text-transform:none;block-progression:tb;-inkscape-font-specification:Sans" d="M2 5v9c0 .524.476 1 1 1h9c.524 0 1-.476 1-1V5H2zm1.938.47a1 1 0 0 1 .093 0A1 1 0 0 1 5.157 6.5v6.625a1 1 0 1 1-2 0V6.5a1 1 0 0 1 .78-1.03zm3.53 0a1 1 0 0 1 .095 0A1 1 0 0 1 8.688 6.5v6.625a1 1 0 1 1-2 0V6.5a1 1 0 0 1 .78-1.03zm3.376 0a1 1 0 0 1 .094 0 1 1 0 0 1 1.124 1.03v6.625a1 1 0 1 1-2 0V6.5a1 1 0 0 1 .782-1.03zM1 2.996v1l13-.003v-.997c0-1-1-1.003-1-1.003h-3s0-1-1-1H6c-1 0-1 1-1 1H2s-1 .003-1 1.003z" overflow="visible" enable-background="accumulate"/></g></svg>
